resources/icons/color/externaldataflow.svg

<svg width="64" height="64" viewBox="0 0 64 64" fill="none" xmlns="http://www.w3.org/2000/svg">
<path d="M6 13C6 9.13401 9.13401 6 13 6H51C54.866 6 58 9.13401 58 13V51C58 54.866 54.866 58 51 58H13C9.13401 58 6 54.866 6 51V13Z" fill="url(#paint0_linear_41743_62699)"/>
<path d="M6 13C6 9.13401 9.13401 6 13 6H51C54.866 6 58 9.13401 58 13V51C58 54.866 54.866 58 51 58H13C9.13401 58 6 54.866 6 51V13Z" fill="url(#paint1_radial_41743_62699)" fill-opacity="0.2"/>
<path fill-rule="evenodd" clip-rule="evenodd" d="M51 7H13C9.68629 7 7 9.68629 7 13V51C7 54.3137 9.68629 57 13 57H51C54.3137 57 57 54.3137 57 51V13C57 9.68629 54.3137 7 51 7ZM13 6C9.13401 6 6 9.13401 6 13V51C6 54.866 9.13401 58 13 58H51C54.866 58 58 54.866 58 51V13C58 9.13401 54.866 6 51 6H13Z" fill="url(#paint2_linear_41743_62699)"/>
<path d="M26.75 27.9298C28.6006 27.5787 30 25.9528 30 24C30 21.7909 28.2091 20 26 20C23.7909 20 22 21.7909 22 24C22 25.9528 23.3994 27.5788 25.25 27.9298L25.25 36.0702C23.3994 36.4213 22 38.0472 22 40C22 42.2091 23.7909 44 26 44C28.2091 44 30 42.2091 30 40C30 38.0472 28.6006 36.4213 26.75 36.0702L26.75 32.7964L33.9998 32.7964C36.6232 32.7964 38.7498 30.6698 38.7498 28.0464V27.9298C40.6005 27.5789 42 25.9529 42 24C42 21.7909 40.2091 20 38 20C35.7909 20 34 21.7909 34 24C34 25.9527 35.3993 27.5786 37.2498 27.9298V28.0464C37.2498 29.8413 35.7947 31.2964 33.9998 31.2964L26.75 31.2964L26.75 27.9298Z" fill="url(#paint3_linear_41743_62699)"/>
<path d="M40 54.5C40 50.3579 43.3579 47 47.5 47H56.5C60.6421 47 64 50.3579 64 54.5V54.5C64 58.6421 60.6421 62 56.5 62H47.5C43.3579 62 40 58.6421 40 54.5V54.5Z" fill="#F5F5F5"/>
<path d="M41 54.5C41 50.9101 43.9101 48 47.5 48H48.5C48.7761 48 49 48.2239 49 48.5C49 48.7761 48.7761 49 48.5 49H47.5C44.4624 49 42 51.4624 42 54.5C42 57.5376 44.4624 60 47.5 60H48.5C48.7761 60 49 60.2239 49 60.5C49 60.7761 48.7761 61 48.5 61H47.5C43.9101 61 41 58.0899 41 54.5Z" fill="url(#paint4_linear_41743_62699)"/>
<path d="M63 54.5C63 58.0899 60.0899 61 56.5 61H55.5C55.2239 61 55 60.7761 55 60.5C55 60.2239 55.2239 60 55.5 60H56.5C59.5376 60 62 57.5376 62 54.5C62 51.4624 59.5376 49 56.5 49H55.5C55.2239 49 55 48.7761 55 48.5C55 48.2239 55.2239 48 55.5 48H56.5C60.0898 48 63 50.9102 63 54.5Z" fill="url(#paint5_linear_41743_62699)"/>
<path d="M47.5 53.979C47.2239 53.979 47 54.2029 47 54.479C47 54.7551 47.2239 54.979 47.5 54.979H57.0938C57.3699 54.979 57.5938 54.7551 57.5938 54.479C57.5938 54.2029 57.3699 53.979 57.0938 53.979H47.5Z" fill="url(#paint6_linear_41743_62699)"/>
<defs>
<linearGradient id="paint0_linear_41743_62699" x1="20.4444" y1="6" x2="27.0222" y2="58.6222" gradientUnits="userSpaceOnUse">
<stop stop-color="white"/>
<stop offset="1" stop-color="#EBEBEB"/>
</linearGradient>
<radialGradient id="paint1_radial_41743_62699" cx="0" cy="0" r="1" gradientUnits="userSpaceOnUse" gradientTransform="translate(22.6111 19.5417) rotate(56.3099) scale(49.4762 42.8159)">
<stop offset="0.177083" stop-color="white"/>
<stop offset="1" stop-color="#B8B8B8"/>
</radialGradient>
<linearGradient id="paint2_linear_41743_62699" x1="22.7917" y1="6" x2="29.7931" y2="58.5109" gradientUnits="userSpaceOnUse">
<stop stop-color="#BBBBBB"/>
<stop offset="1" stop-color="#888888"/>
</linearGradient>
<linearGradient id="paint3_linear_41743_62699" x1="22" y1="20" x2="45.6066" y2="39.6721" gradientUnits="userSpaceOnUse">
<stop stop-color="#7751B8"/>
<stop offset="1" stop-color="#5A409C"/>
</linearGradient>
<linearGradient id="paint4_linear_41743_62699" x1="41" y1="48" x2="52.3874" y2="67.2711" gradientUnits="userSpaceOnUse">
<stop stop-color="#7751B8"/>
<stop offset="1" stop-color="#5A409C"/>
</linearGradient>
<linearGradient id="paint5_linear_41743_62699" x1="41" y1="48" x2="52.3874" y2="67.2711" gradientUnits="userSpaceOnUse">
<stop stop-color="#7751B8"/>
<stop offset="1" stop-color="#5A409C"/>
</linearGradient>
<linearGradient id="paint6_linear_41743_62699" x1="41" y1="48" x2="52.3874" y2="67.2711" gradientUnits="userSpaceOnUse">
<stop stop-color="#7751B8"/>
<stop offset="1" stop-color="#5A409C"/>
</linearGradient>
</defs>
</svg>

<svg xmlns="http://www.w3.org/2000/svg" width="64" height="64" fill="currentColor"><path fill="url(#a)" d="M6 13a7 7 0 0 1 7-7h38a7 7 0 0 1 7 7v38a7 7 0 0 1-7 7H13a7 7 0 0 1-7-7V13Z"/><path fill="url(#b)" fill-opacity=".2" d="M6 13a7 7 0 0 1 7-7h38a7 7 0 0 1 7 7v38a7 7 0 0 1-7 7H13a7 7 0 0 1-7-7V13Z"/><path fill="url(#c)" fill-rule="evenodd" d="M51 7H13a6 6 0 0 0-6 6v38a6 6 0 0 0 6 6h38a6 6 0 0 0 6-6V13a6 6 0 0 0-6-6ZM13 6a7 7 0 0 0-7 7v38a7 7 0 0 0 7 7h38a7 7 0 0 0 7-7V13a7 7 0 0 0-7-7H13Z" clip-rule="evenodd"/><path fill="url(#d)" d="M26.75 27.93A4.001 4.001 0 0 0 26 20a4 4 0 0 0-.75 7.93v8.14A4.001 4.001 0 0 0 26 44a4 4 0 0 0 .75-7.93v-3.274H34a4.75 4.75 0 0 0 4.75-4.75v-.116a4.001 4.001 0 1 0-1.5 0v.116a3.25 3.25 0 0 1-3.25 3.25h-7.25V27.93Z"/><path fill="#F5F5F5" d="M40 54.5a7.5 7.5 0 0 1 7.5-7.5h9a7.5 7.5 0 0 1 0 15h-9a7.5 7.5 0 0 1-7.5-7.5Z"/><path fill="url(#e)" d="M41 54.5a6.5 6.5 0 0 1 6.5-6.5h1a.5.5 0 0 1 0 1h-1a5.5 5.5 0 1 0 0 11h1a.5.5 0 0 1 0 1h-1a6.5 6.5 0 0 1-6.5-6.5Z"/><path fill="url(#f)" d="M63 54.5a6.5 6.5 0 0 1-6.5 6.5h-1a.5.5 0 0 1 0-1h1a5.5 5.5 0 1 0 0-11h-1a.5.5 0 0 1 0-1h1a6.5 6.5 0 0 1 6.5 6.5Z"/><path fill="url(#g)" d="M47.5 53.979a.5.5 0 0 0 0 1h9.594a.5.5 0 0 0 0-1H47.5Z"/><defs><linearGradient id="a" x1="20.444" x2="27.022" y1="6" y2="58.622" gradientUnits="userSpaceOnUse"><stop stop-color="#fff"/><stop offset="1" stop-color="#EBEBEB"/></linearGradient><linearGradient id="c" x1="22.792" x2="29.793" y1="6" y2="58.511" gradientUnits="userSpaceOnUse"><stop stop-color="#BBB"/><stop offset="1" stop-color="#888"/></linearGradient><linearGradient id="d" x1="22" x2="45.607" y1="20" y2="39.672" gradientUnits="userSpaceOnUse"><stop stop-color="#7751B8"/><stop offset="1" stop-color="#5A409C"/></linearGradient><linearGradient id="e" x1="41" x2="52.387" y1="48" y2="67.271" gradientUnits="userSpaceOnUse"><stop stop-color="#7751B8"/><stop offset="1" stop-color="#5A409C"/></linearGradient><linearGradient id="f" x1="41" x2="52.387" y1="48" y2="67.271" gradientUnits="userSpaceOnUse"><stop stop-color="#7751B8"/><stop offset="1" stop-color="#5A409C"/></linearGradient><linearGradient id="g" x1="41" x2="52.387" y1="48" y2="67.271" gradientUnits="userSpaceOnUse"><stop stop-color="#7751B8"/><stop offset="1" stop-color="#5A409C"/></linearGradient><radialGradient id="b" cx="0" cy="0" r="1" gradientTransform="rotate(56.31 -6.951 30.895) scale(49.4762 42.8159)" gradientUnits="userSpaceOnUse"><stop offset=".177" stop-color="#fff"/><stop offset="1" stop-color="#B8B8B8"/></radialGradient></defs></svg>
